src/lib/packages/icons/src/assets/filled/trophy-star.svg

<svg width="24" height="24" viewBox="0 0 24 24" fill="none" xmlns="http://www.w3.org/2000/svg">
<path d="M20 4.25H17.975C17.855 3.541 17.243 3 16.5 3H7.5C6.757 3 6.14502 3.541 6.02502 4.25H4C3.035 4.25 2.25 5.035 2.25 6V7.65002C2.25 10.478 4.64698 11.75 6.34998 11.75H6.672C7.56 13.467 9.25198 14.698 11.251 14.948V18.057C9.75298 18.29 9.00098 19.269 9.00098 20.999H15.001C15.001 19.268 14.249 18.29 12.751 18.057V14.948C14.75 14.698 16.441 13.467 17.33 11.75H17.652C19.354 11.75 21.752 10.478 21.752 7.65002V6C21.75 5.035 20.965 4.25 20 4.25ZM3.75 7.65002V6C3.75 5.862 3.862 5.75 4 5.75H6V9C6 9.422 6.04495 9.83302 6.12695 10.231C5.22995 10.135 3.75 9.46102 3.75 7.65002ZM14.899 8.138L13.819 9.18597C13.74 9.26297 13.704 9.37302 13.723 9.48102L13.97 10.916C14.02 11.207 13.714 11.429 13.452 11.292L12.156 10.614C12.059 10.563 11.9429 10.563 11.8459 10.614L10.551 11.292C10.289 11.429 9.98198 11.207 10.032 10.915L10.2791 9.48199C10.2981 9.37399 10.262 9.26301 10.183 9.18701L9.10303 8.13898C8.90503 7.94598 9.01396 7.60998 9.28796 7.57098L10.782 7.35498C10.891 7.33898 10.985 7.27097 11.033 7.17297L11.6801 5.867C11.8111 5.602 12.19 5.602 12.321 5.867L12.968 7.17297C13.017 7.27097 13.111 7.33898 13.219 7.35498L14.713 7.57098C14.988 7.60898 15.097 7.945 14.899 8.138ZM20.25 7.65002C20.25 9.46102 18.77 10.135 17.873 10.231C17.956 9.83402 18 9.422 18 9V5.75H20C20.138 5.75 20.25 5.862 20.25 6V7.65002Z" fill="currentColor"/>
</svg>

<svg xmlns="http://www.w3.org/2000/svg" width="24" height="24" fill="none"><path fill="currentColor" d="M20 4.25h-2.025A1.497 1.497 0 0 0 16.5 3h-9c-.743 0-1.355.541-1.475 1.25H4c-.965 0-1.75.785-1.75 1.75v1.65c0 2.828 2.397 4.1 4.1 4.1h.322a5.999 5.999 0 0 0 4.579 3.198v3.109c-1.498.233-2.25 1.212-2.25 2.942h6c0-1.731-.752-2.709-2.25-2.942v-3.109a6 6 0 0 0 4.579-3.198h.322c1.702 0 4.1-1.272 4.1-4.1V6A1.755 1.755 0 0 0 20 4.25ZM3.75 7.65V6A.25.25 0 0 1 4 5.75h2V9c0 .422.045.833.127 1.231-.897-.096-2.377-.77-2.377-2.581Zm11.149.488-1.08 1.048a.331.331 0 0 0-.096.295l.247 1.435a.357.357 0 0 1-.518.376l-1.296-.678a.333.333 0 0 0-.31 0l-1.295.678a.358.358 0 0 1-.519-.377l.247-1.433a.33.33 0 0 0-.096-.295l-1.08-1.048a.333.333 0 0 1 .185-.568l1.494-.216a.333.333 0 0 0 .251-.182l.647-1.306a.358.358 0 0 1 .641 0l.647 1.306a.336.336 0 0 0 .251.182l1.494.216a.332.332 0 0 1 .186.567Zm5.351-.488c0 1.811-1.48 2.485-2.377 2.581C17.956 9.834 18 9.422 18 9V5.75h2a.25.25 0 0 1 .25.25v1.65Z"/></svg>
